X:5
%%etbk:tnset id:2,pos:2,rep:3x,ant:
%%etbk:wsite http://www.thesession.org/tunes/display/10965
%%etbk:wsite http://www.youtube.com/watch?v=uO7K1qokKt0
%%etbk:video src:ytube,cde:pe__q4zIrAY,desc:
%%etbk:video src:ytube,cde:uO7K1qokKt0,desc:
%%etbk:pldat 2016-07-26T16:57,2016-07-25T18:20,2016-07-19T20:54,2016-07-15T14:17,2016-03-14T18:06,2015-11-25T15:59,2015-05-31T12:02,2015-04-21T17:12,2015-03-23T18:18,2015-03-06T17:12,2015-01-18T10:55,2015-01-17T14:35,2014-12-27T14:56,2014-12-20T14:37,2014-12-02T17:30,2014-11-26T16:50,2014-11-19T17:11,2014-11-17T18:47,2014-09-11T18:31,2014-09-09T18:21,2014-09-08T17:56,2014-07-05T14:31,2014-05-28T16:56,2014-05-23T16:42,2014-05-19T18:03,2014-05-17T15:14,2014-05-14T16:51,2014-05-13T18:21,2014-05-12T18:00,2014-05-11T12:42,2014-05-08T18:33,2014-05-07T15:36,2014-05-06T15:37,2014-04-08T17:49,2014-03-27T18:39,2014-03-22T16:01,2014-02-26T18:03,2014-02-19T16:36,2014-02-15T16:38,2014-02-06T17:36,2013-11-17T15:32,2013-11-07T15:18,2013-11-05T18:01,2013-10-08T16:50,2013-10-02T16:51,2013-08-26T18:33,2013-05-10T15:38
T: Gorman's (C)
N: http://www.thesession.org/discussions/display/28476/
Z: Piano Box Version by Martin Fleischmann
H: Created 2013-02-19 /  Last Modified 2015-11-25
M: 4/4
L: 1/8
R: Reel
K:Cmix
|: "C"!2!G3 F !2!G!5!cc!3!A | "Bb"!4!B!5!d!4!B!2!F !1!D!2!E!3!F!1!D | "C"!2!G3 F GccA | "Bb"!4!B!2!G!1!F!2!D "C"{E}!2!D!1!CC2 :|
|: "C"!2!G!4!cc!3!=B !4!c2!1!G!2!A | "Bb"!3!B!4!c!3!d!4!e !5!f!3!d!2!c!1!=B | "C"!1!G!3!cc!2!=B !3!c2!1!GA | "Bb"!3!B!1!G!3!F!1!D "C"!2!E!1!CC2 |
"C"!2!G!4!cc!3!=B !4!c2!1!G!2!A | "Bb"!3!B!4!c!1!d!2!e !3!f2!4!g!3!f | "C"!2!e!1!c{f}!2!d!1!c !4!c2!5!d!4!c | "Bb"!3!B!1!G!3!F!1!D "C"!2!E!1!CC2 :|


